X: 3592
T: Bill Cheatham
R: reel
M: 4/4
K: Amajor
|:GF|"A" E2 c2 c4|"A" cBAc BAFE|"D" F2 d2 d4|"D" fgaf ecBA|
"A" E2 c2 c4|"A" cBAc BABc|"D" dcde fgaf|"E" ecBc "A" A2:|
|:z2|"A" ecea "D" fdfa|"E" gefg "A" a2 eg|"A" agae "D" fgaf|"A" ecBA "E" B2 cd|
"A" ecea "D" fdfa|"E" gefg "A" a2 eg|"A" agae "D" fgaf|"E" ecBc "A" A2:|

